icons/folder-video-16.svg

<?xml version="1.0" encoding="UTF-8"?><svg id="icons" xmlns="http://www.w3.org/2000/svg" viewBox="0 0 16 16"><defs><style>.cls-1{fill:none;}.cls-1,.cls-2{stroke-width:0px;}</style></defs><rect class="cls-1" width="16" height="16"/><path class="cls-2" d="m8.2998,3.00201l-1.31842-1.00201h-2.98138l-1.2998,1h-1.7002v11h2.42871c-.14136-.31842-.25458-.65125-.32648-1h-1.10223v-6h12v6h-1.0968c-.0675.34918-.1712.68286-.30475,1h2.40155V3l-6.7002.00201Zm5.7002,2.99799H2v-2h1.04053l1.29974-1h2.3042l1.31842,1h6.03711v2Zm-5.9421,2.0056c-2.23801,0-4.05232,1.78833-4.05232,3.9944,0,2.20595,1.81431,3.9944,4.05232,3.9944s3.93648-1.78845,3.93648-3.9944c0-2.20607-1.69847-3.9944-3.93648-3.9944Zm-.0579,6.9902c-1.6518,0-2.9958-1.344-2.9958-2.9958s1.344-2.9958,2.9958-2.9958,2.9958,1.344,2.9958,2.9958-1.344,2.9958-2.9958,2.9958Zm2-2.9958l-3,2v-4l3,2Z"/></svg>

<svg xmlns="http://www.w3.org/2000/svg" viewBox="0 0 16 16"><path stroke-width="0" fill="none" d="M0 0h16v16H0z"/><path d="M8.3 3.002L6.98 2H4L2.7 3H1v11h2.429a4.903 4.903 0 0 1-.327-1H2V7h12v6h-1.097c-.067.35-.171.683-.305 1H15V3l-6.7.002zM14 6H2V4h1.04l1.3-1h2.304l1.319 1H14v2zM8.058 8.006C5.82 8.006 4.006 9.794 4.006 12c0 2.206 1.814 3.994 4.052 3.994s3.936-1.788 3.936-3.994c0-2.206-1.698-3.994-3.936-3.994zM8 14.996A3 3 0 0 1 5.004 12 3 3 0 0 1 8 9.004 3 3 0 0 1 10.996 12 3 3 0 0 1 8 14.996zM10 12l-3 2v-4l3 2z" stroke-width="0"/></svg>
